X:1
T:[ID 2-4]
T:[ID 2-4]
T:Bezeichnung standardisiert: Menuet [mit Trio] Menuet Con Trio No 15.
T:Urheber unbekannt Erstbeleg: 1767 (Datum in der schriftlichen Quelle) Datum in der hier transkribierten schriftlichen Quelle: 1792
C:Urheber unbekannt
C:Erstbeleg: 1767 (Datum in der schriftlichen Quelle)
C:Datum in der hier transkribierten schriftlichen Quelle: 1792
L:1/8
M:3/4
K:G
V:1 treble 
V:1
 d4 (3efg | fe d4 | c2 B2 A2 | BAGF G2 | d4 (3efg | f"^1)"e Te2 (3efg | f2 ede^c | d6 :: %8
 d2 B,2 dB | c2 A,2 c2 | BdcBAG | FGAF D2 | d2 BdcB | c2 AcBA | B2 AGAF | G6 :| %16
[M:3/4]"^Trio" !fermata!G4 (3BAG | d2 d2 d2 | G4 (3BAG | g2 gf g2 | G4 (3BAG | e2 e2 d2 | c2 edcB | %23
 A6 :: AFDFAc | BGDGBd | c2 edcB | AGFE D2 | d4 e2 | dgfedc | B2 AGAF | G6 :| %32

